images/head-to-master.svg

<?xml version="1.0" encoding="UTF-8"?>
<svg id="svg1463" version="1.1" viewBox="0 0 384 228" xmlns="http://www.w3.org/2000/svg" xmlns:cc="http://creativecommons.org/ns#" xmlns:dc="http://purl.org/dc/elements/1.1/" xmlns:rdf="http://www.w3.org/1999/02/22-rdf-syntax-ns#">
 <metadata id="metadata1469">
  <rdf:RDF>
   <cc:Work rdf:about="">
    <dc:format>image/svg+xml</dc:format>
    <dc:type rdf:resource="http://purl.org/dc/dcmitype/StillImage"/>
    <dc:title>images/head-to-master</dc:title>
   </cc:Work>
  </rdf:RDF>
 </metadata>
 <!-- Generator: Sketch 56.3 (81716) - https://sketch.com -->
 <title id="title1412">images/head-to-master</title>
 <desc id="desc1414">Created with Sketch.</desc>
 <g id="g1557" transform="translate(290)">
  <path id="Line-7" transform="translate(-286,4)" d="m333 117v-29h1v29h4l-4.5 9-4.5-9z" style="fill:#8f8981"/>
  <path id="Line-9" transform="translate(-286,4)" d="m333 56v-29h1v29h4l-4.5 9-4.5-9z" style="fill:#8f8981"/>
  <path id="Line-8" transform="translate(-286,4.7)" d="m334 167v30h-1v-30h-4l4.5-9 4.5 9z" style="fill:#8f8981"/>
  <path id="Line" transform="translate(-286,4)" d="m240 142h50v1h-50v4l-9-4.5 9-4.5z" style="fill:#8f8981"/>
  <path id="Line-2" transform="translate(-286,4)" d="m95 142h50v1h-50v4l-9-4.5 9-4.5z" style="fill:#8f8981"/>
  <g id="g1518" transform="translate(-286,4)">
   <rect id="Rectangle-2" transform="matrix(.81132 0 0 1 290 65)" width="106" height="33" style="fill-rule:evenodd;fill:#f44d27"/>
   <text id="master" transform="translate(280.1 65.316)" font-size="12px" font-weight="700" style="fill-rule:evenodd;fill:#979797;font-family:'Source Code Pro';font-size:12px;font-weight:700;text-anchor:middle"><tspan id="tspan1422" x="53" y="20" style="fill:#f0f0f0">master</tspan></text>
  </g>
  <g id="g1513" transform="translate(-286,4)">
   <rect id="rect1426" transform="matrix(.81132 0 0 1 290 187)" width="106" height="33" style="fill-rule:evenodd;fill:#f44d27"/>
   <text id="text1430" transform="translate(279.87 186.76)" font-size="12px" font-weight="700" style="fill-rule:evenodd;fill:#979797;font-family:'Source Code Pro';font-size:12px;font-weight:700;text-anchor:middle"><tspan id="tspan1428" x="53" y="20" style="fill:#f0f0f0">testing</tspan></text>
  </g>
  <g id="other" transform="translate(4,130)" style="fill-rule:evenodd;fill:none">
   <rect id="rect1434" width="86" height="33" style="fill-rule:evenodd;fill:#efefe7"/>
   <text id="text1438" font-size="12px" font-weight="700" style="fill:#979797;font-family:'Source Code Pro';font-size:12px;font-weight:700;text-anchor:middle"><tspan id="tspan1436" x="43" y="21" style="fill:gray">f30ab</tspan></text>
  </g>
  <g id="g1447" transform="translate(-141,130)" style="fill-rule:evenodd;fill:none">
   <rect id="rect1441" width="86" height="33" style="fill-rule:evenodd;fill:#efefe7"/>
   <text id="text1445" font-size="12px" font-weight="700" style="fill:#979797;font-family:'Source Code Pro';font-size:12px;font-weight:700;text-anchor:middle"><tspan id="tspan1443" x="43" y="21" style="fill:gray">34ac2</tspan></text>
  </g>
  <g id="g1455" transform="translate(-286,130)" style="fill-rule:evenodd;fill:none">
   <rect id="rect1449" width="86" height="33" style="fill-rule:evenodd;fill:#efefe7"/>
   <text id="text1453" font-size="12px" font-weight="700" style="fill:#979797;font-family:'Source Code Pro';font-size:12px;font-weight:700;text-anchor:middle"><tspan id="tspan1451" x="43" y="21" style="fill:gray">98ca9</tspan></text>
  </g>
  <g id="g1526" transform="translate(-286,4)">
   <rect id="Rectangle-3" transform="matrix(.7963 0 0 1 290 0)" width="108" height="33" style="fill-rule:evenodd;fill:#cd9f00"/>
   <text id="master-2" transform="translate(278.83 .412)" font-size="12px" font-weight="700" style="fill-rule:evenodd;fill:#979797;font-family:'Source Code Pro';font-size:12px;font-weight:700;text-anchor:middle"><tspan id="tspan1458" x="54" y="20" style="fill:#f0f0f0">HEAD</tspan></text>
  </g>
 </g>
</svg>

<?xml version="1.0"?>
<svg xmlns="http://www.w3.org/2000/svg" xmlns:xlink="http://www.w3.org/1999/xlink" width="399px" height="220px" viewBox="0 0 399 220" version="1.1">
    <!-- Generator: Sketch 56.3 (81716) - https://sketch.com -->
    <title>images/head-to-master</title>
    <desc>Created with Sketch.</desc>
    <g id="03---Branch-Progression-1" stroke="none" stroke-width="1" fill="none" fill-rule="evenodd">
        <path id="Line-7" d="M333,117 L333,88 L334,88 L334,117 L338,117 L333.5,126 L329,117 L333,117 Z" fill="#8F8981" fill-rule="nonzero"/>
        <path id="Line-9" d="M333,56 L333,27 L334,27 L334,56 L338,56 L333.5,65 L329,56 L333,56 Z" fill="#8F8981" fill-rule="nonzero"/>
        <path id="Line-8" d="M334,167 L334,197 L333,197 L333,167 L329,167 L333.5,158 L338,167 L334,167 Z" fill="#8F8981" fill-rule="nonzero"/>
        <path id="Line" d="M240,142 L290,142 L290,143 L240,143 L240,147 L231,142.5 L240,138 L240,142 Z" fill="#8F8981" fill-rule="nonzero"/>
        <path id="Line-2" d="M95,142 L145,142 L145,143 L95,143 L95,147 L86,142.5 L95,138 L95,142 Z" fill="#8F8981" fill-rule="nonzero"/>
        <g id="ref" transform="translate(290.000000, 65.000000)">
            <rect id="Rectangle-2" fill="#F44D27" fill-rule="evenodd" x="0" y="0" width="106" height="33"/>
            <text stroke="none" font-family="Source Code Pro" font-size="12px" font-weight="700" fill="#979797" fill-opacity="1" text-anchor="middle" id="master">
                <tspan fill="#f0f0f0" x="53" y="20" fill-opacity="1">master</tspan>
            </text>
        </g>
        <g id="ref" transform="translate(290.000000, 187.000000)">
            <rect id="Rectangle-2" fill="#F44D27" fill-rule="evenodd" x="0" y="0" width="106" height="33"/>
            <text stroke="none" font-family="Source Code Pro" font-size="12px" font-weight="700" fill="#979797" fill-opacity="1" text-anchor="middle" id="master">
                <tspan fill="#f0f0f0" x="53" y="20" fill-opacity="1">testing</tspan>
            </text>
        </g>
        <g id="other" transform="translate(290.000000, 126.000000)">
            <rect id="Rectangle-2" fill="#EFEFE7" fill-rule="evenodd" x="0" y="0" width="86" height="33"/>
            <text stroke="none" font-family="Source Code Pro" font-size="12px" font-weight="700" fill="#979797" fill-opacity="1" text-anchor="middle" id="master">
                <tspan fill="#808080" x="43" y="21" fill-opacity="1">f30ab</tspan>
            </text>
        </g>
        <g id="other" transform="translate(145.000000, 126.000000)">
            <rect id="Rectangle-2" fill="#EFEFE7" fill-rule="evenodd" x="0" y="0" width="86" height="33"/>
            <text stroke="none" font-family="Source Code Pro" font-size="12px" font-weight="700" fill="#979797" fill-opacity="1" text-anchor="middle" id="master">
                <tspan fill="#808080" x="43" y="21" fill-opacity="1">34ac2</tspan>
            </text>
        </g>
        <g id="other" transform="translate(0.000000, 126.000000)">
            <rect id="Rectangle-2" fill="#EFEFE7" fill-rule="evenodd" x="0" y="0" width="86" height="33"/>
            <text stroke="none" font-family="Source Code Pro" font-size="12px" font-weight="700" fill="#979797" fill-opacity="1" text-anchor="middle" id="master">
                <tspan fill="#808080" x="43" y="21" fill-opacity="1">98ca9</tspan>
            </text>
        </g>
        <g id="goldref" transform="translate(290.000000, 0.000000)">
            <rect id="Rectangle-3" fill="#CD9F00" fill-rule="evenodd" x="0" y="0" width="108" height="33"/>
            <text stroke="none" font-family="Source Code Pro" font-size="12px" font-weight="700" fill="#979797" fill-opacity="1" text-anchor="middle" id="master-2">
                <tspan fill="#f0f0f0" x="54" y="20" fill-opacity="1">HEAD</tspan>
            </text>
        </g>
    </g>
</svg>
